X:18005
T:Redwing
T:Indian Maid; Union Maid
R:Polka
C:Trad. (Bawdy)
O:USA
M:4/4
L:1/8
Q:1/4=120
K:G
D|:"G"G>D GB d3 B|"C"ce ge "G"d3 B|"Am"cc/B/ "D7"Ac "G"BB/A/ "Em"GB|1"A7"AG FG "D7"AF ED:|2"A7"AG "D7"FA "G"G2||
gf|:"C"e2 c2 eg fe|"G"d2 B2- Bd ed|"D7"d2 A2- Ad ed|1"G"d2 B2- Bg gf:|2"G"G4-G3|]

